X:1027
T:Derry Reel, The
R:reel
C:Eugene O'Donnell
H:See also #488
D:Sharon Shannon
Z:id:hn-reel-1027
M:C|
L:1/8
K:A
c3B ABcA | B2cB AFEF | ABce aAgA | faec BcAB |
c2cB ABcA | B2cA BAFB |1 ABce (3fga ec | BAGB A3B :|2 ABce fece | fAgA a3g ||
|: ~f3e cfaf | geBe g2ag | ~f3e cfaf | gfeg f2eg |
aecB ABcA | B2cA BAFB |1 ABce fece | fAgA a3g :|2 ABce (3fga ec | BABc A3B ||

